recalbox-backport/palm/data/controller.svg

<svg xmlns="http://www.w3.org/2000/svg" viewBox="0 0 12.108 203.62"><path d="M4.95 177.486h3.951c.463 0 .817.494.747 1.041 0 0-1.109 19.746-1.164 20.618-.245 3.929-2.726 4.474-3.594 4.474-.868 0-3.349-.546-3.594-4.474-.054-.872-1.164-20.618-1.164-20.618-.07-.547.284-1.041.747-1.041H4.83" fill="#232322"/><path d="M.878 177.24a.633.633 0 0 1-.632-.632V23.906c0-.682.555-1.237 1.237-1.237h6.816c.682 0 1.237.555 1.237 1.237v152.702a.633.633 0 0 1-.632.632H.878z" fill="#919191"/><path d="M8.299 22.915c.546 0 .991.445.991.991v152.702a.387.387 0 0 1-.387.387H.878a.387.387 0 0 1-.387-.387V23.906c0-.546.445-.991.991-.991h6.817m0-.492H1.483c-.819 0-1.483.664-1.483 1.483v152.702c0 .485.393.878.878.878h8.025a.878.878 0 0 0 .878-.878V23.906a1.482 1.482 0 0 0-1.482-1.483z" fill="#8a8a8a"/><g fill="#353434"><path d="M4.891 203.62c-.574-.212-.958-.559-1.111-1.07l.495-.592L3.144 177.5l-2.263-.014c-.463 0-.817.494-.747 1.041l3.009 23.45c.11.865.88 1.643 1.748 1.643zM6.64 201.977l3.009-23.45c.07-.547-.284-1.041-.747-1.041l-2.263.014-1.132 24.458.495.592c-.153.511-.537.858-1.111 1.07.868 0 1.638-.778 1.749-1.643z"/></g><path d="M3.625 177.432l.054-154.303c0-.359.292-.651.65-.651h1.123c.358 0 .65.292.65.651v154.303H3.625z" fill="#535353"/><path d="M5.453 22.533c.328 0 .596.267.596.596v154.248H3.734V23.129c0-.328.267-.596.596-.596h1.123m0-.11H4.33a.705.705 0 0 0-.705.705v154.358h2.533V23.129a.706.706 0 0 0-.705-.706z" fill="#363636"/><path d="M5.448 201.958L6.58 177.5H3.203l1.132 24.458-.495.592s.446.451.993.512v.012c.02 0 .039-.005.059-.006.02.001.039.006.059.006v-.012c.548-.061.993-.512.993-.512l-.496-.592z" fill="#040101"/><path d="M12.108 12.788c-.405-1.473-.648-3.371-.648-5.443 0-2.075.241-4.061.647-5.535 0-.999-.81-1.81-1.81-1.81h-8.72C.762 0 .102.66.102 1.475V21.523a.9.9 0 0 0 .9.9h7.686c.66 0 1.195-.535 1.195-1.195v-6.453a1.47 1.47 0 0 1 1.471-1.471h.235a.517.517 0 0 0 .517-.517" fill="#454746"/><path d="M4.379 2.868a1.232 1.232 0 0 0-1.231-1.245H2.071A1.23 1.23 0 0 0 .84 2.846v18.213c0 .08.152.189.189.308a.389.389 0 0 1-.034.266.296.296 0 0 0 .254.451l2.219-.017a.203.203 0 0 0 .164-.321l-.115-.161a.551.551 0 0 1 .046-.696l.436-.468a.73.73 0 0 0 .196-.49l.184-17.063zM2.189 19.81a.486.486 0 1 1-.972 0V3.229a.486.486 0 1 1 .972 0V19.81z" fill="#5c5d5f"/><path d="M3.511 2.105v-.417H2.05a.833.833 0 0 0-.833.833v.708a.486.486 0 1 1 .972 0v16.58a.486.486 0 1 1-.972 0v.321c0 .187.149.34.336.346l.189.005a.908.908 0 0 0 .934-.909L2.637 2.979c0-.483.391-.874.874-.874z" fill="#a4a6a5"/><path d="M2.189 19.81a.486.486 0 1 1-.972 0V3.229a.486.486 0 1 1 .972 0V19.81z" fill="#c6ccc9"/><path d="M8.469 9.657a.89.89 0 0 1-.888-.888V7.275a.89.89 0 0 1 .888-.888.89.89 0 0 1 .888.888V8.77a.89.89 0 0 1-.888.887z" fill="#252525"/></svg>

<?xml version="1.0" encoding="UTF-8" standalone="no"?>
<svg
   xmlns:dc="http://purl.org/dc/elements/1.1/"
   xmlns:cc="http://creativecommons.org/ns#"
   xmlns:rdf="http://www.w3.org/1999/02/22-rdf-syntax-ns#"
   xmlns:svg="http://www.w3.org/2000/svg"
   xmlns="http://www.w3.org/2000/svg"
   xmlns:sodipodi="http://sodipodi.sourceforge.net/DTD/sodipodi-0.dtd"
   xmlns:inkscape="http://www.inkscape.org/namespaces/inkscape"
   viewBox="0 0 12.108 203.62"
   version="1.1"
   id="svg28"
   sodipodi:docname="controller.svg"
   width="12.108"
   height="203.62"
   inkscape:version="0.92.4 5da689c313, 2019-01-14">
  <metadata
     id="metadata34">
    <rdf:RDF>
      <cc:Work
         rdf:about="">
        <dc:format>image/svg+xml</dc:format>
        <dc:type
           rdf:resource="http://purl.org/dc/dcmitype/StillImage" />
      </cc:Work>
    </rdf:RDF>
  </metadata>
  <defs
     id="defs32" />
  <sodipodi:namedview
     pagecolor="#ffffff"
     bordercolor="#666666"
     borderopacity="1"
     objecttolerance="10"
     gridtolerance="10"
     guidetolerance="10"
     inkscape:pageopacity="0"
     inkscape:pageshadow="2"
     inkscape:window-width="471"
     inkscape:window-height="442"
     id="namedview30"
     showgrid="false"
     inkscape:zoom="1.1590217"
     inkscape:cx="6.0539999"
     inkscape:cy="101.81"
     inkscape:window-x="0"
     inkscape:window-y="0"
     inkscape:window-maximized="0"
     inkscape:current-layer="svg28" />
  <path
     d="m 4.95,177.486 h 3.951 c 0.463,0 0.817,0.494 0.747,1.041 0,0 -1.109,19.746 -1.164,20.618 -0.245,3.929 -2.726,4.474 -3.594,4.474 -0.868,0 -3.349,-0.546 -3.594,-4.474 -0.054,-0.872 -1.164,-20.618 -1.164,-20.618 -0.07,-0.547 0.284,-1.041 0.747,-1.041 H 4.83"
     id="path2"
     inkscape:connector-curvature="0"
     style="fill:#232322" />
  <path
     d="M 0.878,177.24 A 0.633,0.633 0 0 1 0.246,176.608 V 23.906 c 0,-0.682 0.555,-1.237 1.237,-1.237 h 6.816 c 0.682,0 1.237,0.555 1.237,1.237 v 152.702 a 0.633,0.633 0 0 1 -0.632,0.632 z"
     id="path4"
     inkscape:connector-curvature="0"
     style="fill:#919191" />
  <path
     d="m 8.299,22.915 c 0.546,0 0.991,0.445 0.991,0.991 v 152.702 a 0.387,0.387 0 0 1 -0.387,0.387 H 0.878 A 0.387,0.387 0 0 1 0.491,176.608 V 23.906 c 0,-0.546 0.445,-0.991 0.991,-0.991 h 6.817 m 0,-0.492 H 1.483 C 0.664,22.423 0,23.087 0,23.906 v 152.702 c 0,0.485 0.393,0.878 0.878,0.878 h 8.025 a 0.878,0.878 0 0 0 0.878,-0.878 V 23.906 A 1.482,1.482 0 0 0 8.299,22.423 Z"
     id="path6"
     inkscape:connector-curvature="0"
     style="fill:#8a8a8a" />
  <g
     id="g10"
     style="fill:#353434">
    <path
       d="M 4.891,203.62 C 4.317,203.408 3.933,203.061 3.78,202.55 L 4.275,201.958 3.144,177.5 0.881,177.486 c -0.463,0 -0.817,0.494 -0.747,1.041 l 3.009,23.45 c 0.11,0.865 0.88,1.643 1.748,1.643 z m 1.749,-1.643 3.009,-23.45 c 0.07,-0.547 -0.284,-1.041 -0.747,-1.041 l -2.263,0.014 -1.132,24.458 0.495,0.592 c -0.153,0.511 -0.537,0.858 -1.111,1.07 0.868,0 1.638,-0.778 1.749,-1.643 z"
       id="path8"
       inkscape:connector-curvature="0" />
  </g>
  <path
     d="M 3.625,177.432 3.679,23.129 c 0,-0.359 0.292,-0.651 0.65,-0.651 h 1.123 c 0.358,0 0.65,0.292 0.65,0.651 v 154.303 z"
     id="path12"
     inkscape:connector-curvature="0"
     style="fill:#535353" />
  <path
     d="m 5.453,22.533 c 0.328,0 0.596,0.267 0.596,0.596 V 177.377 H 3.734 V 23.129 c 0,-0.328 0.267,-0.596 0.596,-0.596 h 1.123 m 0,-0.11 H 4.33 A 0.705,0.705 0 0 0 3.625,23.128 V 177.486 H 6.158 V 23.129 A 0.706,0.706 0 0 0 5.453,22.423 Z"
     id="path14"
     inkscape:connector-curvature="0"
     style="fill:#363636" />
  <path
     d="M 5.448,201.958 6.58,177.5 H 3.203 l 1.132,24.458 -0.495,0.592 c 0,0 0.446,0.451 0.993,0.512 v 0.012 c 0.02,0 0.039,-0.005 0.059,-0.006 0.02,10e-4 0.039,0.006 0.059,0.006 v -0.012 c 0.548,-0.061 0.993,-0.512 0.993,-0.512 z"
     id="path16"
     inkscape:connector-curvature="0"
     style="fill:#040101" />
  <path
     d="M 12.108,12.788 C 11.703,11.315 11.46,9.417 11.46,7.345 11.46,5.27 11.701,3.284 12.107,1.81 12.107,0.811 11.297,0 10.297,0 H 1.577 C 0.762,0 0.102,0.66 0.102,1.475 v 20.048 a 0.9,0.9 0 0 0 0.9,0.9 h 7.686 c 0.66,0 1.195,-0.535 1.195,-1.195 v -6.453 a 1.47,1.47 0 0 1 1.471,-1.471 h 0.235 a 0.517,0.517 0 0 0 0.517,-0.517"
     id="path18"
     inkscape:connector-curvature="0"
     style="fill:#454746" />
  <path
     d="M 4.379,2.868 A 1.232,1.232 0 0 0 3.148,1.623 H 2.071 A 1.23,1.23 0 0 0 0.84,2.846 v 18.213 c 0,0.08 0.152,0.189 0.189,0.308 a 0.389,0.389 0 0 1 -0.034,0.266 0.296,0.296 0 0 0 0.254,0.451 L 3.468,22.067 A 0.203,0.203 0 0 0 3.632,21.746 L 3.517,21.585 a 0.551,0.551 0 0 1 0.046,-0.696 l 0.436,-0.468 a 0.73,0.73 0 0 0 0.196,-0.49 z M 2.189,19.81 a 0.486,0.486 0 1 1 -0.972,0 V 3.229 a 0.486,0.486 0 1 1 0.972,0 z"
     id="path20"
     inkscape:connector-curvature="0"
     style="fill:#5c5d5f" />
  <path
     d="M 3.511,2.105 V 1.688 H 2.05 A 0.833,0.833 0 0 0 1.217,2.521 v 0.708 a 0.486,0.486 0 1 1 0.972,0 v 16.58 a 0.486,0.486 0 1 1 -0.972,0 v 0.321 c 0,0.187 0.149,0.34 0.336,0.346 l 0.189,0.005 A 0.908,0.908 0 0 0 2.676,19.572 L 2.637,2.979 c 0,-0.483 0.391,-0.874 0.874,-0.874 z"
     id="path22"
     inkscape:connector-curvature="0"
     style="fill:#a4a6a5" />
  <path
     d="m 2.189,19.81 a 0.486,0.486 0 1 1 -0.972,0 V 3.229 a 0.486,0.486 0 1 1 0.972,0 z"
     id="path24"
     inkscape:connector-curvature="0"
     style="fill:#c6ccc9" />
  <path
     d="M 8.469,9.657 A 0.89,0.89 0 0 1 7.581,8.769 V 7.275 A 0.89,0.89 0 0 1 8.469,6.387 0.89,0.89 0 0 1 9.357,7.275 V 8.77 A 0.89,0.89 0 0 1 8.469,9.657 Z"
     id="path26"
     inkscape:connector-curvature="0"
     style="fill:#252525" />
</svg>
